X:42
T:Staten Island Hornpipe
M:2/2
L:1/8
K:D
AF|DEFG A2 FA|dfec dcBA|B2 GB A2 FA|G2 E2 E2 AF|
DEFG A2 FA|dfec dcBA|dA (3Bcd) efge|f2 d2 d2:|:
(3efg)|a2 fa g2 eg|fAdf ecAB|=c2 =c2 efge|=c2 =c2 efge|
a2 fa g2 eg|fAdf ecBA|dA (3Bcd) efge|f2 d2 d2:||
